X:1
T:Booth Shot Lincoln
L:1/8
M:4/4
R:Reel
K:A
|AF|:E2C4E2|FA2F A2 EF|A2c2B2A2|F4F2AF|
E2C4E2|FA2F A2ef|e2c2BAF2|1 A4z2AF:|2 A4z2AB||
|| ce2ce4| fa2fa2af| e2c2BcBA| F4A2B2|
ce2ce4| fa2fa2ef | e2c2 BAF2 | A4 z2B2 |
ce2ce4| fa2fa2af| e2c2BcBA| F6AF |
E2C4E2|FA2F A2ef|e2c2BAF2| A4z2AF :||
